X:1
T:Partition sans titre
C:Compositeur / Arrangeur
L:1/8
M:4/4
I:linebreak $
K:G
V:1 treble nm="Violon" snm="Vln."
V:1
"G" GABA"C" GD E2 | CE E2"G" GE D2 | G,B, D2"D" DF A2 | ABAA"G" GABA |[M:2/4]"C" GE ED | %5
[M:4/4]"G" GABA"C" GD E2 | CE E2"G" GE D2 | G,B, D2"D" DF A2 | AG A2"G" BA G2 ::"G" GABA GB d2 | %10
"C" e2"D" A2 AB A2 |"G" GABA"C" GEED |"G" GABA GB d2 |"C" e2"D" A2 AB A2 |"G" GABA GF G2 :| %15
